X: 1286
T: the Christening   #2
%S: s:4 b:16(4+4+4+4)
R: reel
O: Cronin
B: O'Neill's 1850 #1286
Z: Trish O'Neil
N: Compacted via repeats and multiple endings [JC]
M: C|
L: 1/8
K: D
(3(ABc) !segno!| d3B BAFA | BcdB BAFA | BEED EFGe | fgec dcBc |
| d>D (3DDD (FD)FA | Bcdc BAFA | BEED EFGe | fgec d2 |] (3(ABc) |
|: d2(fd A)dfd |[1 Adfd cdec :|[2 fgaf gfec :|[3 Adfd cdeg | Tf4Te4 | a3f gfe!segno!c |]
